toilet.svg

<svg fill="currentColor" viewBox="0 0 24 24"><path d="M9 22h8v-2.5c2.41-1.63 4-4.38 4-7.5V4a2 2 0 0 0-2-2h-4a2 2 0 0 0-2 2v8H3c0 3.09 2 6 6 7.5zm-3.71-8h13.42A7.02 7.02 0 0 1 15 18.33V20h-4v-1.67C9 18 5.86 15.91 5.29 14M15 4h4v8h-4zm1 1v3h2V5z"/></svg>

<svg  viewBox="0 0 24 24" fill="currentColor"><path  d="M9,22H17V19.5C19.41,17.87 21,15.12 21,12V4A2,2 0 0,0 19,2H15C13.89,2 13,2.9 13,4V12H3C3,15.09 5,18 9,19.5V22M5.29,14H18.71C18.14,15.91 16.77,17.5 15,18.33V20H11V18.33C9,18 5.86,15.91 5.29,14M15,4H19V12H15V4M16,5V8H18V5H16Z"/></svg>
